X: 7816
T: Come West Along The Road
R: reel
M: 4/4
K: Gmajor
d2BG dGBG|G2 Bd efge|d2BG dGBG|ABcd edBe|
d2BG dGBG|G2 Bd efge|d2BG dGBG|ABcd edBd||
g2bg egdg|egdg edBd|g2bg egdg|ABcd edBd|
g2bg egdg|egdg edBd|gabg efge|dega bage||

